assets/img/dark/ic-trade-real-crypto.svg

<?xml version="1.0" encoding="UTF-8"?>
<svg width="96px" height="96px" viewBox="0 0 96 96" version="1.1" xmlns="http://www.w3.org/2000/svg" xmlns:xlink="http://www.w3.org/1999/xlink">
    <!-- Generator: Sketch 46.2 (44496) - http://www.bohemiancoding.com/sketch -->
    <title>Artboard 2</title>
    <desc>Created with Sketch.</desc>
    <defs></defs>
    <g id="Page-1" stroke="none" stroke-width="1" fill="none" fill-rule="evenodd">
        <g id="Artboard-2">
            <g id="Group-3">
                <rect id="Rectangle-2" fill="#D8D8D8" opacity="0" x="0" y="0" width="96" height="96"></rect>
                <g id="Group" transform="translate(0.000000, 60.000000)">
                    <path d="M88.7630769,15.6184615 L56.1230769,32.7507692 C53.76,33.9323077 50.9538462,34.2276923 48.2953846,33.3415385 L29.5384615,26.9907692 L23.1876923,26.9907692 L23.1876923,6.46153846 L31.0153846,6.46153846 C33.0830769,6.46153846 35.0030769,6.90461538 36.9230769,7.79076923 L47.5569231,12.8123077 L61.44,12.8123077 C62.9169231,12.8123077 64.0984615,14.1415385 64.0984615,15.6184615 C64.0984615,17.0953846 62.9169231,18.4246154 61.2923077,18.4246154 L45.0461538,18.4246154 L44.8984615,18.4246154 C43.4215385,18.72 40.6153846,20.0492308 40.6153846,23.0030769 L42.8307692,23.0030769 C42.8307692,21.3784615 44.8984615,20.7876923 45.3415385,20.64 L61.5876923,20.64 L61.5876923,20.64 C62.4738462,20.64 63.2123077,20.3446154 63.8030769,20.0492308 L63.8030769,20.0492308 L86.5476923,10.0061538 C87.2861538,9.71076923 88.1723077,9.71076923 88.9107692,10.0061538 C89.6492308,10.3015385 90.24,10.8923077 90.5353846,11.6307692 C91.1261538,13.1076923 90.3876923,14.88 88.7630769,15.6184615 Z" id="Path-Copy" fill="#FFFFFF"></path>
                    <rect id="Rectangle" fill="#DEDEDE" x="0" y="3" width="24" height="30"></rect>
                    <circle id="Oval" fill="#C2C2C2" cx="18" cy="27" r="3"></circle>
                    <circle id="Oval-Copy" fill="#C2C2C2" cx="9" cy="27" r="3"></circle>
                </g>
                <g id="Group-2" transform="translate(9.000000, 3.000000)">
                    <g id="dvnd_icon" transform="translate(27.000000, 36.000000)">
                        <rect id="Rectangle" fill="#D8D8D8" opacity="0" x="0" y="0" width="24" height="24"></rect>
                        <g id="Group">
                            <path d="M16.005298,0.874172185 C9.8384106,-1.36688742 2.97218543,1.81192053 0.731125828,7.99470199 C-1.50993377,14.1774834 1.68476821,21.0278146 7.85165563,23.2688742 C14.018543,25.5099338 20.8847682,22.3311258 23.1258278,16.1483444 C25.3668874,9.96556291 22.1721854,3.11523179 16.005298,0.874172185 Z" id="Shape" fill="#E98024" fill-rule="nonzero"></path>
                            <g id="Group-6" transform="translate(4.800000, 3.600000)">
                                <path d="M10.2675497,13.4860927 C9.88609272,13.7562914 9.4410596,13.9311258 8.98013245,14.010596 C8.5192053,14.1059603 8.04238411,14.1059603 7.53377483,14.0423841 C7.18410596,13.994702 6.81854305,13.9311258 6.45298013,13.8198675 L5.73774834,15.8066225 L4.59337748,15.3933775 L5.30860927,13.4066225 L4.14834437,12.9774834 L3.43311258,14.9642384 L2.28874172,14.5509934 L3.00397351,12.5642384 L0.524503311,11.6582781 L0.953642384,10.4662252 L1.3192053,10.5615894 C1.44635762,10.6092715 1.62119205,10.6410596 1.85960265,10.7046358 C2.1615894,10.784106 2.27284768,10.7682119 2.30463576,10.784106 C2.43178808,10.784106 2.4794702,10.7523179 2.4794702,10.7523179 C2.51125828,10.7205298 2.54304636,10.6728477 2.57483444,10.5774834 L4.9589404,4.01324503 C4.99072848,3.91788079 4.99072848,3.85430464 4.99072848,3.79072848 C4.99072848,3.77483444 4.9589404,3.72715232 4.8794702,3.64768212 C4.76821192,3.53642384 4.62516556,3.45695364 4.49801325,3.3615894 C4.32317881,3.26622517 4.18013245,3.20264901 4.08476821,3.13907285 L3.73509934,2.98013245 L4.16423841,1.78807947 L6.58013245,2.66225166 L7.29536424,0.707284768 L8.4397351,1.1205298 L7.75629139,3.10728477 L8.91655629,3.53642384 L9.63178808,1.54966887 L10.7761589,1.96291391 L10.0450331,3.96556291 C10.2834437,4.06092715 10.5059603,4.18807947 10.7125828,4.29933775 C11.0781457,4.5218543 11.3960265,4.77615894 11.6980132,5.0781457 C11.984106,5.38013245 12.1907285,5.72980132 12.3178808,6.12715232 C12.4450331,6.54039735 12.4291391,6.98543046 12.2701987,7.43046358 C12.1271523,7.81192053 11.9205298,8.12980132 11.6344371,8.38410596 C11.3642384,8.62251656 11.0304636,8.79735099 10.6649007,8.90860927 C10.4423841,8.97218543 10.1880795,9.01986755 9.91788079,9.05165563 C10.1880795,9.27417219 10.4264901,9.49668874 10.6331126,9.75099338 C10.9192053,10.0847682 11.1258278,10.4662252 11.2529801,10.9112583 C11.3801325,11.3562914 11.3483444,11.8490066 11.1735099,12.3417219 C10.9668874,12.802649 10.6807947,13.2 10.2675497,13.4860927 Z" id="Path" fill="#FFFFFF"></path>
                                <path d="M8.5192053,11.2927152 C8.18543046,12.1986755 7.18410596,12.6754967 6.2781457,12.3417219 L4.60927152,11.7377483 L5.8013245,8.44768212 L7.47019868,9.05165563 C8.37615894,9.38543046 8.83708609,10.386755 8.5192053,11.2927152 Z" id="Shape" fill="#E98024" fill-rule="nonzero"></path>
                                <path d="M9.53642384,6.76291391 C9.26622517,7.52582781 8.42384106,7.90728477 7.66092715,7.63708609 L6.29403974,7.14437086 L7.29536424,4.37880795 L8.66225166,4.87152318 C9.40927152,5.15761589 9.80662252,6.01589404 9.53642384,6.76291391 Z" id="Shape" fill="#E98024" fill-rule="nonzero"></path>
                            </g>
                        </g>
                    </g>
                    <g id="Group" transform="translate(27.000000, 0.000000)">
                        <circle id="Oval" fill="#E98024" cx="12" cy="12" r="12"></circle>
                        <path d="M13.1477795,10.7787026 C11.4279481,10.2046498 10.7210567,9.80281286 10.7210567,9.21153846 C10.7210567,8.62026406 11.1400843,8.16676234 12.4474657,8.16676234 C13.4541476,8.16501712 14.4468316,8.38539853 15.3435149,8.80970149 L15.9695413,6.72732491 C15.0471732,6.34077688 14.0484706,6.13554882 13.0363484,6.12456946 L13.0363484,4.5 L11.0398736,4.5 L11.0398736,6.22215844 C8.89443704,6.58955224 7.65631314,7.85820896 7.65631314,9.5 C7.65631314,11.2910448 9.11343021,12.2095293 11.2650574,12.8754305 C12.7740209,13.3346728 13.4166846,13.7766935 13.4166846,14.4770379 C13.4166846,15.1773823 12.634732,15.6251435 11.4650918,15.6251435 C10.2990281,15.6168532 9.15274561,15.3449293 8.12563948,14.8329506 L7.5,16.9856487 C8.565839,17.4687446 9.72930376,17.7386466 10.9149005,17.7778416 L10.9149005,19.5 L12.8974464,19.5 L12.8974464,17.6343284 C15.2491079,17.2841561 16.5,15.8834673 16.5,14.2588978 C16.5,12.6343284 15.5369718,11.5551091 13.1477795,10.7787026 Z" id="Path_681" fill="#FFFFFF" fill-rule="nonzero"></path>
                    </g>
                    <g id="Group-Copy" transform="translate(54.000000, 18.000000)">
                        <circle id="Oval" fill="#E98024" cx="12" cy="12" r="12"></circle>
                        <path d="M13.3638219,6.00256215 C12.1936343,5.96373167 11.0462649,6.36724032 10.1097229,7.14696866 C9.25564444,7.89522056 8.66127227,8.9485966 8.42757929,10.1281476 L7.75098446,10.1281476 L7.50096656,11.5586558 L8.23007804,11.5586558 L8.23007804,12.3597403 L8.23007804,12.3597403 L8.23007804,12.6286759 L7.70845565,12.6286759 L7.5,14.0820721 L8.47397437,14.0820721 C8.71589709,15.2233492 9.3089777,16.2351708 10.150963,16.9430884 C11.0938599,17.6737632 12.2256263,18.0433828 13.3747763,17.9959424 C14.4497784,17.9932706 15.5130636,17.7479751 16.5,17.2749663 L16.5,14.7000516 L16.2290399,14.7000516 C15.5651507,15.3699401 14.7178242,15.7729516 13.8229398,15.8444581 C13.6858979,15.8527948 13.5485476,15.8527948 13.4115057,15.8444581 L13.2864967,15.8444581 L13.0364788,15.7929599 L12.8956827,15.7414616 L12.6875492,15.6670751 L12.5522303,15.5926887 C12.4910628,15.563004 12.4318493,15.5285871 12.3750268,15.4896921 L12.2461516,15.3924176 L12.0898905,15.2608108 L11.9700365,15.1406481 L11.8292404,14.9804312 L11.7200186,14.8373804 L11.5950097,14.6485533 L11.501253,14.4826144 C11.4490585,14.3796178 11.3920312,14.2708992 11.3449918,14.1564585 L14.1783132,14.1564585 L14.3970788,12.9376656 L14.4386411,12.7030623 L10.9999284,12.7030623 L10.9999284,11.6330422 L14.6454858,11.6330422 L14.9058137,10.1796459 L11.2602563,10.1796459 C11.3085485,10.040713 11.3641685,9.90505685 11.4268275,9.77338161 C11.480326,9.66105267 11.5394877,9.55216125 11.6040309,9.44722575 L11.6040309,9.40717152 C11.66672,9.30940918 11.7344947,9.21579022 11.8070094,9.12679193 L11.8331066,9.09818177 C11.9058867,9.01016826 11.984157,8.92794935 12.0673373,8.85213437 L12.0673373,8.85213437 C12.1507228,8.78010447 12.2376314,8.71324545 12.3276652,8.65186323 L12.3276652,8.65186323 C12.4180179,8.59305773 12.5120098,8.54143024 12.6089353,8.49736835 L12.6550082,8.49736835 C12.7520457,8.45670638 12.8511233,8.42231661 12.9517434,8.39437176 L13.0090929,8.39437176 C13.1153557,8.36678344 13.2229175,8.34577027 13.3312809,8.3314294 L13.3779981,8.3314294 C13.5012,8.32408683 13.6246681,8.32408683 13.74787,8.3314294 L14.0967996,8.3314294 L14.274003,8.36719211 L14.3832247,8.39580227 L14.5443188,8.44157853 L14.6590177,8.48735479 C15.203435,8.71109919 15.7104249,9.03405548 16.1591251,9.44293423 L16.4300852,9.44293423 L16.4300852,6.72926029 C15.4617624,6.2613314 14.4185878,6.01420503 13.3625331,6.00256215 L13.3638219,6.00256215 Z" id="Path_680" fill="#FFFFFF" fill-rule="nonzero"></path>
                    </g>
                    <g id="Group" transform="translate(0.000000, 18.000000)">
                        <circle id="Oval-2" fill="#E98024" cx="12" cy="12" r="12"></circle>
                        <g id="eth" transform="translate(7.500000, 4.500000)" fill-rule="nonzero" fill="#FFFFFF">
                            <polygon id="Shape" points="4.34490845 10.349345 4.34490845 5.76268559 0.0100140845 7.725131"></polygon>
                            <polygon id="Shape" points="4.34490845 5.44735808 4.34490845 0.0618340611 0.149704225 7.34646288"></polygon>
                            <polygon id="Shape" points="4.62435211 0.0596069869 4.62435211 5.44735808 8.8785 7.37331878"></polygon>
                            <polygon id="Shape" points="4.62435211 5.76268559 4.62435211 10.349476 8.96228873 7.72644105"></polygon>
                            <polygon id="Shape" points="4.34490845 14.9610917 4.34490845 11.2719432 0.0391690141 8.66659389"></polygon>
                            <polygon id="Shape" points="4.62435211 14.9610917 8.93009155 8.66659389 4.62435211 11.2719432"></polygon>
                        </g>
                    </g>
                </g>
            </g>
        </g>
    </g>
</svg>

<svg width="96" height="96" viewBox="0 0 96 96" xmlns="http://www.w3.org/2000/svg"><title>Artboard 2</title><g fill="none" fill-rule="evenodd"><g transform="translate(0 60)"><path d="M88.763 15.618l-32.64 17.133c-2.363 1.181-5.17 1.477-7.828.59l-18.757-6.35h-6.35V6.46h7.827c2.068 0 3.988.444 5.908 1.33l10.634 5.021H61.44c1.477 0 2.658 1.33 2.658 2.806 0 1.477-1.181 2.807-2.806 2.807H44.898c-1.476.295-4.283 1.624-4.283 4.578h2.216c0-1.625 2.067-2.215 2.51-2.363h16.247c.886 0 1.624-.295 2.215-.59l22.745-10.044a3.262 3.262 0 0 1 2.363 0c.738.296 1.329.886 1.624 1.625.591 1.477-.147 3.249-1.772 3.987z" fill="#FFF"/><path fill="#DEDEDE" d="M0 3h24v30H0z"/><circle fill="#C2C2C2" cx="18" cy="27" r="3"/><circle fill="#C2C2C2" cx="9" cy="27" r="3"/></g><path d="M52.005 39.874c-6.167-2.24-13.033.938-15.274 7.12-2.24 6.183.954 13.034 7.12 15.275 6.168 2.24 13.034-.938 15.275-7.12 2.24-6.183-.954-13.034-7.12-15.275z" fill="#E98024" fill-rule="nonzero"/><path d="M51.068 56.086c-.382.27-.827.445-1.288.525-.46.095-.938.095-1.446.031a6.88 6.88 0 0 1-1.081-.222l-.715 1.987-1.145-.414.716-1.986-1.16-.43-.716 1.987-1.144-.413.715-1.987-2.48-.906.43-1.192.365.096c.127.047.302.08.54.143.303.08.414.063.446.08.127 0 .174-.033.174-.033a.421.421 0 0 0 .096-.175l2.384-6.564c.032-.095.032-.159.032-.222 0-.016-.032-.064-.112-.143-.11-.112-.254-.191-.381-.286-.175-.096-.318-.16-.413-.223l-.35-.159.43-1.192 2.415.874.715-1.955 1.145.414-.684 1.986 1.16.43.716-1.987 1.144.413-.731 2.003c.238.095.461.222.668.333.365.223.683.477.985.78.286.301.493.65.62 1.048.127.413.111.858-.048 1.303-.143.382-.35.7-.636.954-.27.239-.604.413-.97.525a4.798 4.798 0 0 1-.746.143c.27.222.508.445.715.699.286.334.493.715.62 1.16.127.445.095.938-.08 1.43-.206.462-.492.859-.905 1.145z" fill="#FFF"/><path d="M49.32 53.893a1.75 1.75 0 0 1-2.242 1.049l-1.669-.604 1.192-3.29 1.67.604a1.764 1.764 0 0 1 1.048 2.24zM50.336 49.363c-.27.763-1.112 1.144-1.875.874l-1.367-.493 1.001-2.765 1.367.493c.747.286 1.145 1.144.874 1.89z" fill="#E98024" fill-rule="nonzero"/><g transform="translate(36 3)"><circle fill="#E98024" cx="12" cy="12" r="12"/><path d="M13.148 10.779c-1.72-.574-2.427-.976-2.427-1.567 0-.592.42-1.045 1.726-1.045 1.007-.002 2 .218 2.897.643l.626-2.083a7.817 7.817 0 0 0-2.934-.602V4.5H11.04v1.722C8.894 6.59 7.656 7.858 7.656 9.5c0 1.791 1.457 2.71 3.61 3.375 1.508.46 2.15.902 2.15 1.602 0 .7-.781 1.148-1.95 1.148a7.617 7.617 0 0 1-3.34-.792L7.5 16.986a9.001 9.001 0 0 0 3.415.792V19.5h1.982v-1.866c2.352-.35 3.603-1.75 3.603-3.375s-.963-2.704-3.352-3.48z" fill="#FFF" fill-rule="nonzero"/></g><g transform="translate(63 21)"><circle fill="#E98024" cx="12" cy="12" r="12"/><path d="M13.364 6.003c-1.17-.04-2.318.364-3.254 1.144-.854.748-1.449 1.802-1.682 2.981H7.75l-.25 1.43h.73V12.63h-.523L7.5 14.082h.974c.242 1.141.835 2.153 1.677 2.861a4.92 4.92 0 0 0 3.224 1.053 7.262 7.262 0 0 0 3.125-.721V14.7h-.271c-.664.67-1.511 1.073-2.406 1.144a3.387 3.387 0 0 1-.411 0h-.126l-.25-.051-.14-.052-.208-.074-.136-.074a1.382 1.382 0 0 1-.177-.103l-.129-.098-.156-.131-.12-.12-.14-.16-.11-.144-.125-.188-.094-.166c-.052-.103-.109-.212-.156-.327h2.833l.22-1.218.04-.235H11v-1.07h3.645l.26-1.453H11.26c.049-.14.104-.275.167-.407.053-.112.112-.22.177-.326v-.04c.063-.098.13-.191.203-.28l.026-.029c.073-.088.151-.17.234-.246a2.137 2.137 0 0 1 .542-.355h.046c.097-.04.196-.075.297-.103h.057c.106-.027.214-.048.322-.063h.047c.123-.007.247-.007.37 0h.349l.177.036.11.029.16.046.115.045a5.119 5.119 0 0 1 1.5.956h.271V6.729a7.223 7.223 0 0 0-3.067-.726z" fill="#FFF" fill-rule="nonzero"/></g><g transform="translate(9 21)"><circle fill="#E98024" cx="12" cy="12" r="12"/><g fill-rule="nonzero" fill="#FFF"><path d="M11.845 14.85v-4.587L7.51 12.225zM11.845 9.947V4.562L7.65 11.846zM12.124 4.56v5.387l4.255 1.926zM12.124 10.263v4.586l4.338-2.623zM11.845 19.461v-3.69l-4.306-2.604zM12.124 19.461l4.306-6.294-4.306 2.605z"/></g></g></g></svg>
